X:198
T:Bending the Ferret
C:Doug Eunson
Z:Steve Beech 23/04/2008
R:Jig
M:6/8
L:1/8
K:G
|: G2B  ABA |  GBd  g2d | edc BAG |1  A2c cBA :|2 A2F  G3 :|
|:e2e  dcB | ABc dcd | e2e  dcB |  ABc def |
g2d BAG| ABc  ABc | B2B  cAF | G6:|
